!!!COM: Palestrina, Giovanni Perluigi da
!!!OPR: Salve regina
!!!OTL: Benedictus
**kern	**kern	**kern	**kern
*Ibass	*Itenor	*Icalto	*Icant
!Bassus	!Tenor	!Altus	!Cantus
*clefF4	*clefGv2	*clefG2	*clefG2
*k[b-]	*k[b-]	*k[b-]	*k[b-]
*G:dor	*G:dor	*G:dor	*G:dor
*M4/2	*M4/2	*M4/2	*M4/2
=1	=1	=1	=1
0r	0d	0r	0r
=2	=2	=2	=2
0r	1c	0a	0r
.	1d	.	.
=3	=3	=3	=3
0r	1G	1g	0r
.	[1d	1a	.
=4	=4	=4	=4
0r	2d]	2d	0dd
.	2c	1a	.
.	1B-	.	.
.	.	[2g	.
=5	=5	=5	=5
0r	1A	2g]	1cc
.	.	2f	.
.	2G	[1b-	1dd
.	[2g	.	.
=6	=6	=6	=6
0r	2g]	2b-]	1g
.	2e-	2g	.
.	2f	2a	[1dd
.	[2g	[2b-	.
=7	=7	=7	=7
0r	2g]	2b-]	2dd]
.	2c	1a	2cc
.	[1d	.	1b-
.	.	[2g	.
=8	=8	=8	=8
0r	1d]	2g]	1a
.	.	2f	.
.	1G	1b-	2g
.	.	.	[2gg
=9	=9	=9	=9
0d	0r	2a	2gg]
.	.	4d	2ff
.	.	4e	.
.	.	4f	4dd
.	.	4g	4ee
.	.	4a	4ff
.	.	4b-	4dd
=10	=10	=10	=10
1c	2r	1cc	1ee-
.	1g	.	.
1d	.	2b-	1dd
.	2f	2a	.
=11	=11	=11	=11
1G	2d	2b-	2r
.	2e	2g	2gg
[1d	2.f	1a	2ff
.	.	.	2dd
.	4g	.	.
=12	=12	=12	=12
2d]	1a	2d	2ff
2c	.	2e	2.ee
1B-	1d	2f	.
.	.	.	4dd
.	.	2g	[2dd
=13	=13	=13	=13
1A	1e	1a	2dd]
.	.	.	2cc
2.G	[1g	[1d	4b-
.	.	.	4a
.	.	.	4b-
4A	.	.	4cc
=14	=14	=14	=14
4B-	2g]	1d]	1dd
4c	.	.	.
1d	2f	.	.
.	1e	1r	2r
2c#	.	.	2ee
=15	=15	=15	=15
1d	2r	1a	2.ff
.	2d	.	.
.	.	.	4ee
1r	2.g	2.b-	2dd
.	.	.	[2gg
.	4f	4a	.
=16	=16	=16	=16
0r	1e	2g	4gg]
.	.	.	4ff
.	.	4cc	4ee
.	.	4b-	4dd
.	4f	4a	2cc
.	4e	4g	.
.	4d	4f	[2dd
.	4c	4e	.
=17	=17	=17	=17
0r	2B-	2d	4dd]
.	.	.	4cc
.	2G	1g	2b-
.	1d	.	2a
.	.	2f	[2dd
=18	=18	=18	=18
1A	1r	1e	2dd]
.	.	.	2cc#
2.B-	2r	1d	1dd
.	2d	.	.
4A	.	.	.
=19	=19	=19	=19
2G	2.e-	1g	0r
2.c	.	.	.
.	4d	.	.
.	2c	2.cc	.
4B-	.	.	.
4A	[2f	.	.
4G	.	4b-	.
=20	=20	=20	=20
2F	4f]	2a	0r
.	4e-	.	.
2.G	4d	2.b-	.
.	4c	.	.
.	4B-	.	.
4F	4c	4a	.
4F	[2d	4a	.
8E-	.	8g	.
8D	.	8f	.
=21	=21	=21	=21
2E-	2d]	2g	0r
2E-	2c	2g	.
2D	1d	2f	.
2D	.	2a	.
=22	=22	=22	=22
2G	2r	2.b-	1dd
2G	2B-	.	.
.	.	4a	.
1C	2.c	2g	2.ee-
.	.	[2cc	.
.	4B-	.	4dd
=23	=23	=23	=23
0r	2A	4cc]	2cc
.	.	4b-	.
.	2.d	4a	2.ff
.	.	4g	.
.	.	1f	.
.	4c	.	4ee-
.	4B-	.	4dd
.	4A	.	4cc
=24	=24	=24	=24
0r	2G	2g	2b-
.	2F	2.a	2.cc
.	1G	.	.
.	.	4g	4b-
.	.	[2g	4b-
.	.	.	8a
.	.	.	8g
=25	=25	=25	=25
1D	2.d	2g]	2a
.	.	2f#	2a
.	4d	.	.
2.E-	1G	1g	2g
.	.	.	2b-
4D	.	.	.
=26	=26	=26	=26
2C	2r	2r	2.cc
2.F	1A	2c	.
.	.	.	4b-
.	.	2.f	2a
4E-	.	.	.
4D	[2B-	.	[2dd
4C	.	4e-	.
=27	=27	=27	=27
2BB-	4B-]	2d	2dd]
.	4A	.	.
2C	1G	2.e-	2cc
1D	.	.	2b-
.	.	4d	.
.	2F	[2d	[2a
=28	=28	=28	=28
2.E-	1G	2d]	4a]
.	.	.	4g
.	.	2c	1g
4E-	.	.	.
2D	2.A	1d	.
2D	.	.	2f#
.	4A	.	.
=29	=29	=29	=29
2.E-	1G	1B-	2g
.	.	.	2b-
4D	.	.	.
2C	2r	2r	2.cc
[2F	[2A	2c	.
.	.	.	4b-
=30	=30	=30	=30
4F]	2A]	2.f	2a
4E-	.	.	.
4D	2.B-	.	1dd
4C	.	4e-	.
2BB-	.	2d	.
.	4A	.	.
2C	[2G	[2e-	2cc
=31	=31	=31	=31
1D	2G]	4e-]	2b-
.	.	4d	.
.	2F#	1d	2.a
1E-	1G	.	.
.	.	.	4g
.	.	2c	[2g
=32	=32	=32	=32
1.D	1.A	[0d	2g]
.	.	.	4f#
.	.	.	4e
.	.	.	2f#
2D	2A	.	2f#
=33	=33	=33	=33
0G	0G	0d]	0g
==	==	==	==
*-	*-	*-	*-
!!!CDT: 1525/^1526/-1594/2/2
!!!OCY: Italia
!!!AGN: Mass (Paraphrase)
!!!AST: renaissance, vocal
!!!ASW: Antiphon
!!!PWK: Masses, Book 11
!!!RNB: Cadence finals: D
!!!YOR: Le Opere Complete, v. 28, p. 185
!!!YOO: Rome, Italy: Fratelli Scalera
!!!END: 1992//
!!!EED: John Miller
!!!YEC: Copyright 2000, John Miller
!!!YEN: United States of America
!!!YEM: Rights to all derivative electronic formats reserved.
!!!YEM: Refer to licensing agreement for further details.
!!!YEM: This file must be accompanied by the licensing agreement.
!!!YEM: A copy of the licensing agreement may be found at http://www.music-cog.ohio-state.edu/HumdrumDatabases/Palestrina/license.txt
!!!EMD: converted to Humdrum by Bret Aarden
